Simply-Green-Circles/scalable/status/aptdaemon-working.svg

<svg xmlns="http://www.w3.org/2000/svg" height="24" width="24"><path d="M12 1.14A10.82 10.86 0 0 0 1.18 12 10.82 10.86 0 0 0 12 22.86 10.82 10.86 0 0 0 22.82 12 10.82 10.86 0 0 0 12 1.13zm0 1.89a9.12 9.12 0 0 1 .84.04l.52 2.68a6.43 6.43 0 0 1 1.24.4l1.97-1.88c.5.3.93.66 1.36 1.04l-1.16 2.44a6.48 6.48 0 0 1 .76 1.05l2.68-.36a8.85 8.85 0 0 1 .52 1.64l-2.36 1.28a6.18 6.18 0 0 1 0 1.28l2.36 1.28a8.86 8.86 0 0 1-.52 1.64l-2.68-.36a6.6 6.6 0 0 1-.76 1.04l1.16 2.45c-.43.38-.87.75-1.36 1.04l-1.97-1.88c-.39.17-.81.3-1.24.4l-.52 2.68a9.12 9.12 0 0 1-1.68 0l-.52-2.68a6.4 6.4 0 0 1-1.24-.4l-1.97 1.88c-.5-.3-.93-.66-1.36-1.04l1.16-2.45a6.53 6.53 0 0 1-.76-1.04l-2.68.36a8.79 8.79 0 0 1-.52-1.64l2.36-1.28A6.21 6.21 0 0 1 5.6 12a6.18 6.18 0 0 1 .04-.64l-2.36-1.28a8.86 8.86 0 0 1 .52-1.64l2.68.36a6.48 6.48 0 0 1 .76-1.05L6.07 5.31c.43-.38.86-.74 1.36-1.04L9.4 6.15a6.42 6.42 0 0 1 1.24-.4l.52-2.68c.28-.02.56-.04.84-.04zm0 5.13a3.85 3.85 0 0 0 0 7.69 3.85 3.85 0 0 0 0-7.7z" fill="#2ca02c" paint-order="markers fill stroke"/></svg>

<?xml version="1.0" encoding="UTF-8" standalone="no"?>
<svg
   xmlns:dc="http://purl.org/dc/elements/1.1/"
   xmlns:cc="http://creativecommons.org/ns#"
   xmlns:rdf="http://www.w3.org/1999/02/22-rdf-syntax-ns#"
   xmlns:svg="http://www.w3.org/2000/svg"
   xmlns="http://www.w3.org/2000/svg"
   xmlns:sodipodi="http://sodipodi.sourceforge.net/DTD/sodipodi-0.dtd"
   xmlns:inkscape="http://www.inkscape.org/namespaces/inkscape"
   height="24"
   width="24"
   version="1.1"
   id="svg4"
   sodipodi:docname="aptdaemon-working.svg"
   inkscape:version="0.92.4 (5da689c313, 2019-01-14)">
  <metadata
     id="metadata10">
    <rdf:RDF>
      <cc:Work
         rdf:about="">
        <dc:format>image/svg+xml</dc:format>
        <dc:type
           rdf:resource="http://purl.org/dc/dcmitype/StillImage" />
        <dc:title></dc:title>
      </cc:Work>
    </rdf:RDF>
  </metadata>
  <defs
     id="defs8" />
  <sodipodi:namedview
     pagecolor="#ffffff"
     bordercolor="#666666"
     borderopacity="1"
     objecttolerance="10"
     gridtolerance="10"
     guidetolerance="10"
     inkscape:pageopacity="0"
     inkscape:pageshadow="2"
     inkscape:window-width="1085"
     inkscape:window-height="480"
     id="namedview6"
     showgrid="false"
     inkscape:zoom="9.8333333"
     inkscape:cx="1.0677966"
     inkscape:cy="12"
     inkscape:window-x="0"
     inkscape:window-y="25"
     inkscape:window-maximized="0"
     inkscape:current-layer="svg4" />
  <path
     d="M 12,1.14 A 10.82,10.86 0 0 0 1.18,12 10.82,10.86 0 0 0 12,22.86 10.82,10.86 0 0 0 22.82,12 10.82,10.86 0 0 0 12,1.13 Z m 0,1.89 a 9.12,9.12 0 0 1 0.84,0.04 l 0.52,2.68 a 6.43,6.43 0 0 1 1.24,0.4 l 1.97,-1.88 c 0.5,0.3 0.93,0.66 1.36,1.04 l -1.16,2.44 a 6.48,6.48 0 0 1 0.76,1.05 l 2.68,-0.36 a 8.85,8.85 0 0 1 0.52,1.64 l -2.36,1.28 a 6.18,6.18 0 0 1 0,1.28 l 2.36,1.28 a 8.86,8.86 0 0 1 -0.52,1.64 L 17.53,15.2 a 6.6,6.6 0 0 1 -0.76,1.04 l 1.16,2.45 c -0.43,0.38 -0.87,0.75 -1.36,1.04 L 14.6,17.85 c -0.39,0.17 -0.81,0.3 -1.24,0.4 l -0.52,2.68 a 9.12,9.12 0 0 1 -1.68,0 L 10.64,18.25 A 6.4,6.4 0 0 1 9.4,17.85 L 7.43,19.73 C 6.93,19.43 6.5,19.07 6.07,18.69 L 7.23,16.24 A 6.53,6.53 0 0 1 6.47,15.2 L 3.79,15.56 A 8.79,8.79 0 0 1 3.27,13.92 L 5.63,12.64 A 6.21,6.21 0 0 1 5.6,12 6.18,6.18 0 0 1 5.64,11.36 L 3.28,10.08 A 8.86,8.86 0 0 1 3.8,8.44 L 6.48,8.8 A 6.48,6.48 0 0 1 7.24,7.75 L 6.07,5.31 C 6.5,4.93 6.93,4.57 7.43,4.27 L 9.4,6.15 a 6.42,6.42 0 0 1 1.24,-0.4 L 11.16,3.07 C 11.44,3.05 11.72,3.03 12,3.03 Z m 0,5.13 a 3.85,3.85 0 0 0 0,7.69 3.85,3.85 0 0 0 0,-7.7 z"
     id="path2"
     inkscape:connector-curvature="0"
     style="fill:#2ca02c;fill-opacity:0.98999999;paint-order:markers fill stroke" />
</svg>
